X: 10338
T: Don Oiche Ud I mBeithil
R: reel
M: 4/4
K: Aminor
L:1/4
E|A>c B A|G A2 A|c d/e/ d>B|G3 E|
A>c B A|G A2 A|c d/e/ B>A|A3 e|
g>e d e|g a2 b/a/|g e/d/ c d|e3 E|
A>c B A|G A2 A|c d/e/ B>A|A3||

